bookmark/img/logo-white.svg

<svg width="148" height="25" viewBox="0 0 148 25" fill="none" xmlns="http://www.w3.org/2000/svg">
<path fill-rule="evenodd" clip-rule="evenodd" d="M51.6907 19.0387C52.7547 19.6547 53.94 19.9627 55.2467 19.9627C56.5533 19.9627 57.7387 19.6547 58.8027 19.0387C59.8667 18.4227 60.7036 17.5796 61.3133 16.5093C61.9231 15.4391 62.228 14.2631 62.228 12.9813C62.228 11.6995 61.9231 10.5236 61.3133 9.45333C60.7036 8.38311 59.8667 7.54 58.8027 6.924C57.7387 6.308 56.5533 6 55.2467 6C53.94 6 52.7547 6.308 51.6907 6.924C50.6267 7.54 49.7898 8.38311 49.18 9.45333C48.5702 10.5236 48.2653 11.6995 48.2653 12.9813C48.2653 14.2631 48.5702 15.4391 49.18 16.5093C49.7898 17.5796 50.6267 18.4227 51.6907 19.0387ZM42.2267 6.29867H37V19.664H42.4133C43.2222 19.664 43.9596 19.5116 44.6253 19.2067C45.2911 18.9018 45.82 18.4662 46.212 17.9C46.604 17.3338 46.8 16.6836 46.8 15.9493C46.8 15.1902 46.5947 14.54 46.184 13.9987C45.7733 13.4573 45.2196 13.0622 44.5227 12.8133V12.664C45.0578 12.4027 45.4902 12.0262 45.82 11.5347C46.1498 11.0431 46.3147 10.4613 46.3147 9.78933C46.3147 9.15466 46.1342 8.56978 45.7733 8.03467C45.4124 7.49955 44.9178 7.07645 44.2893 6.76533C43.6609 6.45422 42.9733 6.29867 42.2267 6.29867ZM43.356 11.292C43.0262 11.5969 42.5876 11.7493 42.04 11.7493H39.52V8.55733H42.1147C42.6373 8.55733 43.0573 8.70978 43.3747 9.01467C43.692 9.31956 43.8507 9.696 43.8507 10.144C43.8507 10.6044 43.6858 10.9871 43.356 11.292ZM42.32 17.368C42.9298 17.368 43.4058 17.2093 43.748 16.892C44.0902 16.5747 44.2613 16.1609 44.2613 15.6507C44.2613 15.1404 44.0871 14.7236 43.7387 14.4C43.3902 14.0764 42.8924 13.9147 42.2453 13.9147H39.52V17.368H42.32ZM55.2467 17.5733C56.068 17.5733 56.8209 17.3804 57.5053 16.9947C58.1898 16.6089 58.728 16.0676 59.12 15.3707C59.512 14.6738 59.708 13.8773 59.708 12.9813C59.708 12.0853 59.512 11.2889 59.12 10.592C58.728 9.89511 58.1898 9.35378 57.5053 8.968C56.8209 8.58222 56.068 8.38933 55.2467 8.38933C54.4253 8.38933 53.6756 8.58222 52.9973 8.968C52.3191 9.35378 51.784 9.89511 51.392 10.592C51 11.2889 50.804 12.0853 50.804 12.9813C50.804 13.8773 51 14.6738 51.392 15.3707C51.784 16.0676 52.3191 16.6089 52.9973 16.9947C53.6756 17.3804 54.4253 17.5733 55.2467 17.5733ZM67.044 19.0387C68.108 19.6547 69.2933 19.9627 70.6 19.9627C71.9067 19.9627 73.092 19.6547 74.156 19.0387C75.22 18.4227 76.0569 17.5796 76.6667 16.5093C77.2764 15.4391 77.5813 14.2631 77.5813 12.9813C77.5813 11.6995 77.2764 10.5236 76.6667 9.45333C76.0569 8.38311 75.22 7.54 74.156 6.924C73.092 6.308 71.9067 6 70.6 6C69.2933 6 68.108 6.308 67.044 6.924C65.98 7.54 65.1431 8.38311 64.5333 9.45333C63.9236 10.5236 63.6187 11.6995 63.6187 12.9813C63.6187 14.2631 63.9236 15.4391 64.5333 16.5093C65.1431 17.5796 65.98 18.4227 67.044 19.0387ZM70.6 17.5733C71.4213 17.5733 72.1742 17.3804 72.8587 16.9947C73.5431 16.6089 74.0813 16.0676 74.4733 15.3707C74.8653 14.6738 75.0613 13.8773 75.0613 12.9813C75.0613 12.0853 74.8653 11.2889 74.4733 10.592C74.0813 9.89511 73.5431 9.35378 72.8587 8.968C72.1742 8.58222 71.4213 8.38933 70.6 8.38933C69.7787 8.38933 69.0289 8.58222 68.3507 8.968C67.6724 9.35378 67.1373 9.89511 66.7453 10.592C66.3533 11.2889 66.1573 12.0853 66.1573 12.9813C66.1573 13.8773 66.3533 14.6738 66.7453 15.3707C67.1373 16.0676 67.6724 16.6089 68.3507 16.9947C69.0289 17.3804 69.7787 17.5733 70.6 17.5733ZM82.3507 6.29867H79.8307V19.664H82.3507V15.744L83.8627 13.9707L87.8573 19.664H90.9373V19.5147L85.5987 11.9733L90.4333 6.448V6.29867H87.3907L82.5 12.0293H82.3507V6.29867ZM93.7778 6H97.0258L100.572 15.3893H100.722L104.268 6H107.535V19.3653H105.034V12.776L105.183 10.5547H105.034L101.636 19.3653H99.6764L96.2604 10.5547H96.1111L96.2604 12.776V19.3653H93.7778V6ZM117.472 6H114.579L109.576 19.3653H112.357L113.477 16.1733H118.592L119.712 19.3653H122.493L117.472 6ZM117.771 13.8587L116.595 10.4987L116.109 8.89333H115.96L115.475 10.4987L114.28 13.8587H117.771ZM129.425 6H124.553V19.3653H127.073V14.344H128.249L131.702 19.3653H134.596V19.216L131.012 14.0827L131.03 13.952C131.852 13.6533 132.533 13.1711 133.074 12.5053C133.616 11.8396 133.886 11.0773 133.886 10.2187C133.886 9.40977 133.7 8.68489 133.326 8.044C132.953 7.40311 132.427 6.90222 131.749 6.54133C131.071 6.18044 130.296 6 129.425 6ZM129.406 12.0293C129.979 12.0293 130.445 11.8551 130.806 11.5067C131.167 11.1582 131.348 10.7164 131.348 10.1813C131.348 9.67111 131.176 9.23556 130.834 8.87467C130.492 8.51378 130.028 8.33333 129.444 8.33333H127.073V12.0293H129.406ZM139.156 6H136.636V19.3653H139.156V15.4453L140.668 13.672L144.663 19.3653H147.743V19.216L142.404 11.6747L147.239 6.14933V6H144.196L139.306 11.7307H139.156V6Z" fill="white"/>
<circle cx="12.5" cy="12.5" r="12.5" fill="#5267DF"/>
<path fill-rule="evenodd" clip-rule="evenodd" d="M11 7C9.89543 7 9 7.89543 9 9V19L12.5395 15.5609L16.0789 19V9C16.0789 7.89543 15.1835 7 14.0789 7H11Z" fill="white"/>
</svg>

<svg width="148" height="25" fill="none" xmlns="http://www.w3.org/2000/svg"><path fill-rule="evenodd" clip-rule="evenodd" d="M51.69 19.039c1.065.616 2.25.924 3.557.924 1.306 0 2.492-.308 3.556-.924a6.71 6.71 0 0 0 2.51-2.53c.61-1.07.915-2.246.915-3.528 0-1.281-.305-2.457-.915-3.528a6.71 6.71 0 0 0-2.51-2.529C57.739 6.308 56.553 6 55.247 6c-1.307 0-2.492.308-3.556.924a6.711 6.711 0 0 0-2.511 2.53c-.61 1.07-.915 2.245-.915 3.527s.305 2.458.915 3.528a6.711 6.711 0 0 0 2.51 2.53zm-9.463-12.74H37v13.365h5.413c.81 0 1.547-.152 2.212-.457a3.817 3.817 0 0 0 1.587-1.307c.392-.566.588-1.216.588-1.95 0-.76-.205-1.41-.616-1.951-.41-.542-.964-.937-1.661-1.186v-.149a3.255 3.255 0 0 0 1.297-1.13c.33-.49.495-1.073.495-1.745 0-.634-.18-1.22-.542-1.754-.36-.535-.855-.959-1.484-1.27a4.584 4.584 0 0 0-2.062-.466zm1.129 4.993c-.33.305-.768.457-1.316.457h-2.52V8.557h2.595c.522 0 .942.153 1.26.458.317.305.476.681.476 1.129 0 .46-.165.843-.495 1.148zm-1.036 6.076c.61 0 1.086-.159 1.428-.476.342-.317.513-.731.513-1.241 0-.51-.174-.927-.522-1.251-.349-.324-.847-.485-1.494-.485H39.52v3.453h2.8zm12.927.205c.821 0 1.574-.193 2.258-.578a4.176 4.176 0 0 0 1.615-1.624c.392-.697.588-1.494.588-2.39 0-.896-.196-1.692-.588-2.389a4.176 4.176 0 0 0-1.615-1.624 4.52 4.52 0 0 0-2.258-.579 4.47 4.47 0 0 0-2.25.579 4.195 4.195 0 0 0-1.605 1.624c-.392.697-.588 1.493-.588 2.39 0 .895.196 1.692.588 2.389a4.195 4.195 0 0 0 1.605 1.624 4.47 4.47 0 0 0 2.25.578zm11.797 1.466c1.064.616 2.25.924 3.556.924 1.307 0 2.492-.308 3.556-.924a6.711 6.711 0 0 0 2.51-2.53c.61-1.07.915-2.246.915-3.528 0-1.281-.305-2.457-.914-3.528a6.711 6.711 0 0 0-2.511-2.529C73.092 6.308 71.906 6 70.6 6c-1.307 0-2.492.308-3.556.924a6.711 6.711 0 0 0-2.51 2.53c-.61 1.07-.915 2.245-.915 3.527s.305 2.458.914 3.528a6.711 6.711 0 0 0 2.511 2.53zm3.556-1.466c.821 0 1.574-.193 2.259-.578a4.177 4.177 0 0 0 1.614-1.624c.392-.697.588-1.494.588-2.39 0-.896-.196-1.692-.588-2.389a4.177 4.177 0 0 0-1.614-1.624 4.521 4.521 0 0 0-2.259-.579 4.47 4.47 0 0 0-2.25.579 4.195 4.195 0 0 0-1.605 1.624c-.392.697-.588 1.493-.588 2.39 0 .895.196 1.692.588 2.389a4.195 4.195 0 0 0 1.606 1.624 4.47 4.47 0 0 0 2.249.578zM82.35 6.3h-2.52v13.365h2.52v-3.92l1.513-1.773 3.994 5.693h3.08v-.15l-5.338-7.54 4.834-5.526v-.15h-3.042L82.5 12.03h-.15V6.3zM93.779 6h3.248l3.546 9.39h.15L104.268 6h3.267v13.365h-2.501v-6.589l.149-2.221h-.149l-3.398 8.81h-1.96l-3.416-8.81h-.149l.15 2.221v6.59h-2.483V6zm23.694 0h-2.893l-5.003 13.365h2.781l1.12-3.192h5.115l1.12 3.192h2.781L117.472 6zm.299 7.859-1.176-3.36-.486-1.606h-.149l-.485 1.606-1.195 3.36h3.491zM129.425 6h-4.872v13.365h2.52v-5.021h1.176l3.453 5.021h2.894v-.149l-3.584-5.133.018-.131a4.611 4.611 0 0 0 2.044-1.447 3.52 3.52 0 0 0 .812-2.286c0-.81-.186-1.534-.56-2.175a3.906 3.906 0 0 0-1.577-1.503c-.678-.36-1.453-.541-2.324-.541zm-.019 6.03c.573 0 1.039-.175 1.4-.523.361-.349.542-.79.542-1.326 0-.51-.172-.945-.514-1.306-.342-.361-.806-.542-1.39-.542h-2.371v3.696h2.333zm9.75-6.03h-2.52v13.365h2.52v-3.92l1.512-1.773 3.995 5.693h3.08v-.149l-5.339-7.541 4.835-5.526V6h-3.043l-4.89 5.73h-.15V6z" fill="#fff"/><circle cx="12.5" cy="12.5" r="12.5" fill="#5267DF"/><path fill-rule="evenodd" clip-rule="evenodd" d="M11 7a2 2 0 0 0-2 2v10l3.54-3.44L16.079 19V9a2 2 0 0 0-2-2H11z" fill="#fff"/></svg>
